assets/images/icons/src/cutlery.svg

<?xml version="1.0" encoding="utf-8"?>
<!-- Generated by IcoMoon.io -->
<!DOCTYPE svg PUBLIC "-//W3C//DTD SVG 1.1//EN" "http://www.w3.org/Graphics/SVG/1.1/DTD/svg11.dtd">
<svg version="1.1" xmlns="http://www.w3.org/2000/svg" xmlns:xlink="http://www.w3.org/1999/xlink" width="11" height="14" viewBox="0 0 11 14">
<path fill="#444444" d="M5 0.5v5q0 0.477-0.277 0.867t-0.723 0.547v6.086q0 0.406-0.297 0.703t-0.703 0.297h-1q-0.406 0-0.703-0.297t-0.297-0.703v-6.086q-0.445-0.156-0.723-0.547t-0.277-0.867v-5q0-0.203 0.148-0.352t0.352-0.148 0.352 0.148 0.148 0.352v3.25q0 0.203 0.148 0.352t0.352 0.148 0.352-0.148 0.148-0.352v-3.25q0-0.203 0.148-0.352t0.352-0.148 0.352 0.148 0.148 0.352v3.25q0 0.203 0.148 0.352t0.352 0.148 0.352-0.148 0.148-0.352v-3.25q0-0.203 0.148-0.352t0.352-0.148 0.352 0.148 0.148 0.352zM11 0.5v12.5q0 0.406-0.297 0.703t-0.703 0.297h-1q-0.406 0-0.703-0.297t-0.297-0.703v-4h-1.75q-0.102 0-0.176-0.074t-0.074-0.176v-6.25q0-1.031 0.734-1.766t1.766-0.734h2q0.203 0 0.352 0.148t0.148 0.352z"></path>
</svg>

<svg xmlns="http://www.w3.org/2000/svg" width="11" height="14" viewBox="0 0 11 14"><path fill="#444" d="M5 .5v5q0 .477-.277.867T4 6.914V13q0 .406-.297.703T3 14H2q-.406 0-.703-.297T1 13V6.914q-.445-.156-.723-.547T0 5.5v-5Q0 .297.148.148T.5 0t.352.148T1 .5v3.25q0 .203.148.352t.352.148.352-.148T2 3.75V.5q0-.203.148-.352T2.5 0t.352.148T3 .5v3.25q0 .203.148.352t.352.148.352-.148T4 3.75V.5q0-.203.148-.352T4.5 0t.352.148T5 .5zm6 0V13q0 .406-.297.703T10 14H9q-.406 0-.703-.297T8 13V9H6.25q-.102 0-.176-.074T6 8.75V2.5q0-1.031.734-1.766T8.5 0h2q.203 0 .352.148T11 .5z"/></svg>
